static/cards/FrenchDeck/cyberwave/card_clubs_K.svg

<svg xmlns="http://www.w3.org/2000/svg" width="822" height="1122" fill="none" viewBox="0 0 822 1122"><rect width="822" height="1122" fill="#1a0033" rx="20"/><g fill="#fff066" clip-path="url(#a)"><path d="M94.544 159q-2.944 0-2.944-2.944V74.904q0-2.944 2.944-2.944h1.024q2.944 0 2.944 2.944v81.152q0 2.944-2.944 2.944zm52.224 0q-.896 0-1.28-.128-.257-.128-.768-.64l-37.504-39.04-.896-.896q-.64-.768-.896-1.28-.256-.64-.256-1.536 0-1.024.384-1.664t.896-1.152q.511-.64.768-.896l36.864-39.04q.511-.512.768-.64.384-.128 1.28-.128h4.864q1.28 0 1.28.896 0 .511-.896 1.408l-38.912 41.216 39.552 41.216q.896.896.896 1.408 0 .896-1.28.896zM141.309 231.337v-.004c0-11.782-9.224-21.333-20.603-21.333s-20.603 9.551-20.603 21.333c-11.379 0-20.603 9.552-20.603 21.334S88.724 274 100.103 274c10.386 0 18.977-7.957 20.397-18.305C121.92 266.043 130.511 274 140.897 274c11.379 0 20.603-9.551 20.603-21.333 0-11.64-9.002-21.102-20.191-21.33"/><rect width="5" height="33" x="118.5" y="251" rx="2.5"/><path d="M719.456 959q2.944 0 2.944 2.944v81.156q0 2.94-2.944 2.94h-1.024q-2.944 0-2.944-2.94v-81.156q0-2.944 2.944-2.944zm-52.224 0q.896 0 1.28.128.257.128.768.64l37.504 39.04.896.896c.427.516.725.936.896 1.276.171.43.256.94.256 1.54 0 .68-.128 1.24-.384 1.66-.256.43-.555.81-.896 1.16-.341.42-.597.72-.768.89l-36.864 39.04c-.341.34-.597.56-.768.64-.256.09-.683.13-1.28.13h-4.864q-1.28 0-1.28-.9c0-.34.299-.81.896-1.4l38.912-41.22-39.552-41.216q-.896-.896-.896-1.408 0-.896 1.28-.896zM672.691 886.663v.004c0 11.782 9.224 21.333 20.603 21.333s20.603-9.551 20.603-21.333c11.379 0 20.603-9.552 20.603-21.334S725.276 844 713.897 844c-10.386 0-18.977 7.957-20.397 18.305C692.08 851.957 683.489 844 673.103 844c-11.379 0-20.603 9.551-20.603 21.333 0 11.64 9.002 21.102 20.191 21.33"/><rect width="5" height="33" x="695.5" y="867" rx="2.5" transform="rotate(-180 695.5 867)"/></g><path fill="#998a00" fill-rule="evenodd" d="M413.096 652.136v64.373c0 .87-1.035 1.325-1.676.736l-49.04-45.025a1 1 0 0 0-.436-.234l-48.698-12.034a1 1 0 0 1-.76-.971V647.5l48.593-39.976 6.136 5.065 45.53 38.786a1 1 0 0 1 .351.761" clip-rule="evenodd"/><path fill="#e6cf00" d="M304.403 894.647h124.863V795.5l-76.393-112.368h-74.549v67.421s-29.288 7.403-26.078 18.772c3.209 11.369 26.078 48.648 26.078 48.648zM306.925 932.379c-2.549 4.059-8.796 2.552-9.215-2.222l-2.114-24.08a5 5 0 0 1 4.981-5.438h17.237c3.932 0 6.326 4.33 4.234 7.66zM423.448 932.379c2.549 4.059 8.796 2.552 9.215-2.222l2.114-24.08a5 5 0 0 0-4.981-5.438h-17.237c-3.932 0-6.326 4.33-4.235 7.66zM388.767 931.581c-1.567 4.453-7.865 4.453-9.432 0l-8.758-24.881c-1.145-3.252 1.268-6.66 4.716-6.66h17.516c3.448 0 5.861 3.408 4.716 6.66zM351.038 931.581c-1.567 4.453-7.865 4.453-9.432 0l-8.758-24.881c-1.145-3.252 1.268-6.66 4.716-6.66h17.516c3.448 0 5.861 3.408 4.716 6.66z"/><path fill="#fffacc" d="M399.202 865.444c-18.589 17.173-70.884 13.568-95.638 10.73-6.394-.733-11.798 5.053-10.41 11.338a9.096 9.096 0 0 0 8.883 7.135h123.217c5.523 0 10-4.477 10-10v-131.01a10 10 0 0 0-3.113-7.251l-70.271-66.745a10 10 0 0 0-4.385-2.431l-41.648-10.76a10 10 0 0 0-5.346.095l-30.974 9.19a10 10 0 0 0-7.155 9.587v6.419c0 6.468 6.046 11.333 12.432 10.306 21.317-3.427 64.43-7.332 83.986 12.543 26.529 26.964 72.001 112.442 30.422 150.854"/><rect width="50.305" height="5.992" x="328.655" y="729.27" fill="#fffacc" rx="2.996" transform="rotate(-180 328.655 729.27)"/><path fill="#fffacc" d="M278.35 740.655v9.587s52.246 4.248 61.481-4.972c7.432-7.42 6.776-47.757 6.776-47.757h-9.665s4.736 31.952-3.972 39.854c-8.707 7.903-54.62 3.288-54.62 3.288M361.294 599.844l51.802 44.341h42.22l-95.519-141.41-81.147 138.114h33.536z"/><path fill="#f2e6ff" d="M314.534 842.123c7.339-1.361 14.783-5.904 18.653-8.78.875-.65 1.401-1.817.848-2.756-1.576-2.676-5.344 2.613-11.967 3.842-5.248.973-21.326.129-28.89-1.196-1.594-.279-3.255.566-3.802 2.089l-.85 2.365c-.627 1.745.46 3.631 2.296 3.892 6.505.923 16.793 1.827 23.712.544"/><path fill="#998a00" fill-rule="evenodd" d="M405.011 479.843v-64.372c0-.87 1.035-1.325 1.677-.736l49.039 45.025c.124.113.274.194.436.234l48.698 12.034a1 1 0 0 1 .761.971v11.481l-48.594 39.976-6.135-5.065-45.53-38.786a1 1 0 0 1-.352-.762" clip-rule="evenodd"/><path fill="#e6cf00" d="M513.704 237.332H388.842v99.148l76.392 112.368h74.549v-67.421s29.288-7.403 26.079-18.772c-3.21-11.369-26.079-48.648-26.079-48.648zM511.182 199.601c2.549-4.059 8.796-2.553 9.215 2.222l2.114 24.08a5 5 0 0 1-4.98 5.437h-17.238c-3.932 0-6.325-4.329-4.234-7.659zM394.66 199.601c-2.549-4.059-8.796-2.553-9.215 2.222l-2.115 24.08a5 5 0 0 0 4.981 5.437h17.238c3.932 0 6.325-4.329 4.234-7.659zM429.34 200.399c1.568-4.453 7.865-4.453 9.433 0l8.758 24.88c1.144 3.253-1.269 6.661-4.717 6.661h-17.515c-3.448 0-5.861-3.408-4.717-6.661zM467.069 200.399c1.567-4.453 7.865-4.453 9.433 0l8.757 24.88c1.145 3.253-1.268 6.661-4.716 6.661h-17.515c-3.448 0-5.862-3.408-4.717-6.661z"/><path fill="#fffacc" d="M418.905 266.536c18.589-17.174 70.884-13.568 95.638-10.73 6.395.733 11.798-5.053 10.41-11.338a9.1 9.1 0 0 0-8.883-7.136H392.853c-5.523 0-10 4.477-10 10v131.011c0 2.741 1.126 5.363 3.113 7.251l70.272 66.744a10 10 0 0 0 4.385 2.432l41.648 10.76c1.757.454 3.605.421 5.346-.095l30.973-9.19a10 10 0 0 0 7.156-9.587v-6.419c0-6.469-6.046-11.333-12.433-10.306-21.317 3.427-64.43 7.332-83.985-12.543-26.53-26.964-72.001-112.443-30.423-150.854"/><rect width="50.305" height="5.992" x="489.452" y="402.71" fill="#fffacc" rx="2.996"/><path fill="#fffacc" d="M539.757 391.325v-9.587s-52.245-4.248-61.481 4.972c-7.432 7.419-6.775 47.757-6.775 47.757h9.664s-4.736-31.952 3.972-39.855 54.62-3.287 54.62-3.287M456.814 532.135l-51.803-44.34h-42.22l95.52 141.41 81.147-138.114h-33.537z"/><path fill="#f2e6ff" d="M503.573 289.857c-7.339 1.361-14.782 5.904-18.653 8.779-.875.65-1.401 1.818-.848 2.757 1.577 2.676 5.344-2.613 11.968-3.842 5.247-.973 21.325-.129 28.89 1.196 1.593.279 3.255-.566 3.802-2.089l.849-2.365c.627-1.745-.46-3.631-2.296-3.892-6.504-.924-16.793-1.827-23.712-.544"/><defs><clipPath id="a"><path fill="#fff" d="M46 48h722v1022H46z"/></clipPath></defs></svg>

<svg width="822" height="1122" viewBox="0 0 822 1122" fill="none" xmlns="http://www.w3.org/2000/svg">
<rect width="822" height="1122" rx="20" fill="#1A0033"/>
<g clip-path="url(#clip0_19_206)">
<path d="M94.544 159C92.5813 159 91.6 158.019 91.6 156.056V74.904C91.6 72.9413 92.5813 71.96 94.544 71.96H95.568C97.5307 71.96 98.512 72.9413 98.512 74.904V156.056C98.512 158.019 97.5307 159 95.568 159H94.544ZM146.768 159C146.171 159 145.744 158.957 145.488 158.872C145.317 158.787 145.061 158.573 144.72 158.232L107.216 119.192C107.045 119.021 106.747 118.723 106.32 118.296C105.893 117.784 105.595 117.357 105.424 117.016C105.253 116.589 105.168 116.077 105.168 115.48C105.168 114.797 105.296 114.243 105.552 113.816C105.808 113.389 106.107 113.005 106.448 112.664C106.789 112.237 107.045 111.939 107.216 111.768L144.08 72.728C144.421 72.3867 144.677 72.1733 144.848 72.088C145.104 72.0027 145.531 71.96 146.128 71.96H150.992C151.845 71.96 152.272 72.2587 152.272 72.856C152.272 73.1973 151.973 73.6667 151.376 74.264L112.464 115.48L152.016 156.696C152.613 157.293 152.912 157.763 152.912 158.104C152.912 158.701 152.485 159 151.632 159H146.768Z" fill="#FFF066"/>
<path d="M141.309 231.337C141.309 231.336 141.309 231.335 141.309 231.333C141.309 219.551 132.085 210 120.706 210C109.327 210 100.103 219.551 100.103 231.333C88.7243 231.333 79.5 240.885 79.5 252.667C79.5 264.449 88.7243 274 100.103 274C110.489 274 119.08 266.043 120.5 255.695C121.92 266.043 130.511 274 140.897 274C152.276 274 161.5 264.449 161.5 252.667C161.5 241.027 152.498 231.565 141.309 231.337Z" fill="#FFF066"/>
<rect x="118.5" y="251" width="5" height="33" rx="2.5" fill="#FFF066"/>
<path d="M719.456 959C721.419 959 722.4 959.981 722.4 961.944V1043.1C722.4 1045.06 721.419 1046.04 719.456 1046.04H718.432C716.469 1046.04 715.488 1045.06 715.488 1043.1V961.944C715.488 959.981 716.469 959 718.432 959H719.456ZM667.232 959C667.829 959 668.256 959.043 668.512 959.128C668.683 959.213 668.939 959.427 669.28 959.768L706.784 998.808C706.955 998.979 707.253 999.277 707.68 999.704C708.107 1000.22 708.405 1000.64 708.576 1000.98C708.747 1001.41 708.832 1001.92 708.832 1002.52C708.832 1003.2 708.704 1003.76 708.448 1004.18C708.192 1004.61 707.893 1004.99 707.552 1005.34C707.211 1005.76 706.955 1006.06 706.784 1006.23L669.92 1045.27C669.579 1045.61 669.323 1045.83 669.152 1045.91C668.896 1046 668.469 1046.04 667.872 1046.04H663.008C662.155 1046.04 661.728 1045.74 661.728 1045.14C661.728 1044.8 662.027 1044.33 662.624 1043.74L701.536 1002.52L661.984 961.304C661.387 960.707 661.088 960.237 661.088 959.896C661.088 959.299 661.515 959 662.368 959H667.232Z" fill="#FFF066"/>
<path d="M672.691 886.663C672.691 886.664 672.691 886.665 672.691 886.667C672.691 898.449 681.915 908 693.294 908C704.673 908 713.897 898.449 713.897 886.667C725.276 886.667 734.5 877.115 734.5 865.333C734.5 853.551 725.276 844 713.897 844C703.511 844 694.92 851.957 693.5 862.305C692.08 851.957 683.489 844 673.103 844C661.724 844 652.5 853.551 652.5 865.333C652.5 876.973 661.502 886.435 672.691 886.663Z" fill="#FFF066"/>
<rect x="695.5" y="867" width="5" height="33" rx="2.5" transform="rotate(-180 695.5 867)" fill="#FFF066"/>
</g>
<path fill-rule="evenodd" clip-rule="evenodd" d="M413.096 652.136V716.509C413.096 717.379 412.061 717.834 411.42 717.245L362.38 672.22C362.257 672.107 362.107 672.026 361.944 671.986L313.246 659.952C312.8 659.841 312.486 659.441 312.486 658.981V647.5L361.079 607.524L367.215 612.589L412.745 651.375C412.968 651.565 413.096 651.843 413.096 652.136Z" fill="#998A00"/>
<path d="M304.403 894.647H429.266V795.5L352.873 683.132H278.324V750.553C278.324 750.553 249.036 757.956 252.246 769.325C255.455 780.694 278.324 817.973 278.324 817.973L304.403 894.647Z" fill="#E6CF00"/>
<path d="M306.925 932.379C304.376 936.438 298.129 934.931 297.71 930.157L295.596 906.077C295.339 903.154 297.643 900.639 300.577 900.639H317.814C321.746 900.639 324.14 904.969 322.048 908.299L306.925 932.379Z" fill="#E6CF00"/>
<path d="M423.448 932.379C425.997 936.438 432.244 934.931 432.663 930.157L434.777 906.077C435.034 903.154 432.73 900.639 429.796 900.639H412.559C408.627 900.639 406.233 904.969 408.324 908.299L423.448 932.379Z" fill="#E6CF00"/>
<path d="M388.767 931.581C387.2 936.034 380.902 936.034 379.335 931.581L370.577 906.7C369.432 903.448 371.845 900.04 375.293 900.04H392.809C396.257 900.04 398.67 903.448 397.525 906.7L388.767 931.581Z" fill="#E6CF00"/>
<path d="M351.038 931.581C349.471 936.034 343.173 936.034 341.606 931.581L332.848 906.7C331.703 903.448 334.116 900.04 337.564 900.04H355.08C358.528 900.04 360.941 903.448 359.796 906.7L351.038 931.581Z" fill="#E6CF00"/>
<path d="M399.202 865.444C380.613 882.617 328.318 879.012 303.564 876.174C297.17 875.441 291.766 881.227 293.154 887.512C294.074 891.68 297.769 894.647 302.037 894.647H425.254C430.777 894.647 435.254 890.17 435.254 884.647V753.637C435.254 750.895 434.129 748.274 432.141 746.386L361.87 679.641C360.638 678.472 359.129 677.635 357.485 677.21L315.837 666.45C314.079 665.995 312.231 666.028 310.491 666.545L279.517 675.735C275.273 676.994 272.362 680.894 272.362 685.322V691.741C272.362 698.209 278.408 703.074 284.794 702.047C306.111 698.62 349.224 694.715 368.78 714.59C395.309 741.554 440.781 827.032 399.202 865.444Z" fill="#FFFACC"/>
<rect x="328.655" y="729.27" width="50.3051" height="5.99194" rx="2.99597" transform="rotate(-180 328.655 729.27)" fill="#FFFACC"/>
<path d="M278.35 740.655V750.242C278.35 750.242 330.596 754.49 339.831 745.27C347.263 737.85 346.607 697.513 346.607 697.513H336.942C336.942 697.513 341.678 729.465 332.97 737.367C324.263 745.27 278.35 740.655 278.35 740.655Z" fill="#FFFACC"/>
<path d="M361.294 599.844L413.096 644.185H455.316L359.797 502.775L278.65 640.889H312.186L361.294 599.844Z" fill="#FFFACC"/>
<path d="M314.534 842.123C321.873 840.762 329.317 836.219 333.187 833.343C334.062 832.693 334.588 831.526 334.035 830.587C332.459 827.911 328.691 833.2 322.068 834.429C316.82 835.402 300.742 834.558 293.178 833.233C291.584 832.954 289.923 833.799 289.376 835.322L288.526 837.687C287.899 839.432 288.986 841.318 290.822 841.579C297.327 842.502 307.615 843.406 314.534 842.123Z" fill="#F2E6FF"/>
<path fill-rule="evenodd" clip-rule="evenodd" d="M405.011 479.843V415.471C405.011 414.601 406.046 414.146 406.688 414.735L455.727 459.76C455.851 459.873 456.001 459.954 456.163 459.994L504.861 472.028C505.308 472.139 505.622 472.539 505.622 472.999V484.48L457.028 524.456L450.893 519.391L405.363 480.605C405.14 480.415 405.011 480.136 405.011 479.843Z" fill="#998A00"/>
<path d="M513.704 237.332H388.842V336.48L465.234 448.848H539.783V381.427C539.783 381.427 569.071 374.024 565.862 362.655C562.652 351.286 539.783 314.007 539.783 314.007L513.704 237.332Z" fill="#E6CF00"/>
<path d="M511.182 199.601C513.731 195.542 519.978 197.048 520.397 201.823L522.511 225.903C522.768 228.826 520.465 231.34 517.531 231.34H500.293C496.361 231.34 493.968 227.011 496.059 223.681L511.182 199.601Z" fill="#E6CF00"/>
<path d="M394.66 199.601C392.111 195.542 385.864 197.048 385.445 201.823L383.33 225.903C383.074 228.826 385.377 231.34 388.311 231.34H405.549C409.481 231.34 411.874 227.011 409.783 223.681L394.66 199.601Z" fill="#E6CF00"/>
<path d="M429.34 200.399C430.908 195.946 437.205 195.946 438.773 200.399L447.531 225.279C448.675 228.532 446.262 231.94 442.814 231.94H425.299C421.851 231.94 419.438 228.532 420.582 225.279L429.34 200.399Z" fill="#E6CF00"/>
<path d="M467.069 200.399C468.636 195.946 474.934 195.946 476.502 200.399L485.259 225.279C486.404 228.532 483.991 231.94 480.543 231.94H463.028C459.58 231.94 457.166 228.532 458.311 225.279L467.069 200.399Z" fill="#E6CF00"/>
<path d="M418.905 266.536C437.494 249.362 489.789 252.968 514.543 255.806C520.938 256.539 526.341 250.753 524.953 244.468C524.033 240.3 520.339 237.332 516.07 237.332H392.853C387.33 237.332 382.853 241.809 382.853 247.332V378.343C382.853 381.084 383.979 383.706 385.966 385.594L456.238 452.338C457.469 453.508 458.978 454.345 460.623 454.77L502.271 465.53C504.028 465.984 505.876 465.951 507.617 465.435L538.59 456.245C542.835 454.986 545.746 451.085 545.746 446.658V440.239C545.746 433.77 539.7 428.906 533.313 429.933C511.996 433.36 468.883 437.265 449.328 417.39C422.798 390.426 377.327 304.947 418.905 266.536Z" fill="#FFFACC"/>
<rect x="489.452" y="402.71" width="50.3051" height="5.99194" rx="2.99597" fill="#FFFACC"/>
<path d="M539.757 391.325V381.738C539.757 381.738 487.512 377.49 478.276 386.71C470.844 394.129 471.501 434.467 471.501 434.467H481.165C481.165 434.467 476.429 402.515 485.137 394.612C493.844 386.71 539.757 391.325 539.757 391.325Z" fill="#FFFACC"/>
<path d="M456.814 532.135L405.011 487.795H362.791L458.311 629.205L539.458 491.091H505.921L456.814 532.135Z" fill="#FFFACC"/>
<path d="M503.573 289.857C496.234 291.218 488.791 295.761 484.92 298.636C484.045 299.286 483.519 300.454 484.072 301.393C485.649 304.069 489.416 298.78 496.04 297.551C501.287 296.578 517.365 297.422 524.93 298.747C526.523 299.026 528.185 298.181 528.732 296.658L529.581 294.293C530.208 292.548 529.121 290.662 527.285 290.401C520.781 289.477 510.492 288.574 503.573 289.857Z" fill="#F2E6FF"/>
<defs>
<clipPath id="clip0_19_206">
<rect width="722" height="1022" fill="white" transform="translate(46 48)"/>
</clipPath>
</defs>
</svg>
